X:1
T:Vilmark Testing Ground - Boss
T:Vilmark Testing Ground - Boss
T:Confidential area in Elvenguard
%%score { 1 | 2 }
L:1/8
Q:1/4=192
M:4/4
K:G
V:1 bass nm="Piano" snm="Pno."
V:2 bass 
V:1
 [B,,E,]2 [E,E][_E,_E] [=E,=E]2 [C,C][B,,B,] | [C,E,C]2 E,2 [B,,E,]2 [G,,G,]2 | %2
 [G,,G,]2 E, z E,E,G,E, | A,2 E,2 E,E, G,2 | E,3 [B,,B,] [_B,,_B,] [A,,A,]2 [G,,G,] | %5
 [C,C]2 E,2 [B,,E,]E, [G,,G,]2 | G,,2 E, z [B,,E,]E,G,E,- | E,2 [A,,E,A,]3 E, [B,,B,]2 | %8
[K:treble] [ee']/=f'/ e'3 [fe']/f'/ e'3 | [ee']/=f'/ e'3 [ee']f' d'2 | %10
 [ee']/=f'/ e'3 [fe']/f'/ e'3 | [ee']/=f'/ e'3 [ee']f' d'2 | [ee']/=f'/ e'3 [fe']/f'/ e'3 | %13
 [ee']/=f'/ e'3 [ee']f' d'2 | [ee']/=f'/ e'3 [fe']/f'/ e'3 | [ee']/=f'/ e'3 [ee']f' d'2 | %16
 E2 E2 E2 [Gg]E | [Ff]2 [Ee]2 [Ee]2 [Gg]2 | [Ff]2 E e2 E [Geg]2 | [Ff]2 [Gg]2 [Aa]2 [_E_e]2 | %20
 [Ee]2 E2 E2 [Gg]E | [Ff]2 [Ee]2 [Ee]2 [Gg]2 | [Ff]2 E e2 E [Geg]2 | [FBf]2 [Gcg]2 [Aa]2 [Beb]2 | %24
 E2 [EB]2 [Ec]2 G2 | F2 E2 E2 [Bb]2- | [Bb]2 Be c2 [Gg]2 | %27
 [FB_ef]2 [G=eg][_ef] [A=ega]a[ebe'][^da^d'] | [ebe']2 [EB]2 [Ec]2 [EA]2 | [EB]2 F2 G2 E2 | %30
 [ee']2 [EB]2 [Ec]2 G2 | [F,F]E [G,G]2 [A,A]2 [B,B]E | [Ee][Ee][Bb][Ee] [Ee][Bb][Ee][Ee] | %33
 [Bc'][Ee][Ee][Ba] [Ee][Ee][Bb][Ee] | [Ee][Ee][Bb][Ee] [Ee][Bb][Ee][Ee] | %35
 [Bc'][Ee][Ee][Ba] [Ee][Ee][Bb][Ee] | [Ee][Ee][Bb][Ee] [Ee][Bb][Ee][Ee] | %37
 [Bc'][Ee][Ee][Ba] [Ee][Ee][Bb][Ee] | [Ee][Ee][Bb][Ee] [Ee][Bb][Ee][Ee] | %39
 [Aa][Gg][Ff][Ee] [_E_e][=E=e] [Ff]2 | [Ee][Ee][Bb][Ee] [Ee][Bb][Ee][Ee] | %41
 [Bc'][Ee][Ee][Ba] [Ee][Ee][Bb][Ee] | [Ee][Ee][Bb][Ee] [Ee][Bb][Ee][Ee] | %43
 [Bc'][Ee][Ee][Ba] [Ee][Ee][Bb][Ee] | [Ee][Ee][Bb][Ee] [Ee][Bb][Ee][Ee] | %45
 [Bc'][Ee][Ee][Ba] [Ee][Ee][Bb][Ee] | [Ee][Ee][Bb][Ee] [Ee][cb][Ee][Ee] | %47
 (3:2:2[ebe']2 [bc'e'] (3[bc'e'][bc'e'][bc'e'] [bf'][bf'][bg'][bf'] | %48
 [Ee][Ee][Bb][Ee] [Ee][Bb][Ee][Ee] | [Bc'][Ee][Ee][Ba] [Ee][Ee][Bb][Ee] | %50
 [Ee][Ee][Bb][Ee] [Ee][Bb][Ee][Ee] | [Bc'][Ee][Ee][Ba] [Ee][Ee][Bb][Ee] | %52
 [Ee][Ee][Bb][Ee] [Ee][Bb][Ee][Ee] | [Bc'][Ee][Ee][Ba] [Ee][Ee][Bb][Ee] | %54
 [Ee][Ee][Bb][Ee] [Ee][Bb][Ee][Ee] | [Bc'][Ee][Ee][Aa] [Bb][c^ec'] [dbd']2 | %56
 !arpeggio![eb^d'e']8 |] %57
V:2
 [E,,,B,,,E,,]4 [E,,B,,]4- | [E,,B,,]2 E,,2 E,,4 | E,,,2 [E,,,E,,] z E,,E,,G,,E,, | %3
 A,,2 E,,2 E,,E,, D,,2 | [E,,,E,,]E,,E,,,E,, E,,,2 E,,E,,,- | E,,,2 E,,2 [E,,,E,,] E,,2 E,, | %6
 [E,,,E,,]2 E,, z E,,4 | E,,, E,,3 E,,E,,, E,,2 | [E,,,E,,]2 [E,E][_E,_E] [=E,=E]2 [C,C][B,,B,] | %9
 [C,C]2 [E,,E,]2 [E,,E,]2 [G,,G,]2 | [G,,G,]2 [E,,E,]2 [E,,E,][E,,E,][G,,G,][E,,E,] | %11
 [A,,A,]2 [E,,E,]2 [E,,E,][E,,E,] [G,,G,]2 | [E,,,E,,][E,,,E,,] [B,,E,]2 [E,,E,]2 [B,,B,]2 | %13
 [C,C]2 [E,,F,]2 [E,,E,][E,,E,] [G,,G,]2 | [G,,G,]2 [E,,E,]2 [E,,E,][E,,E,][G,,G,]E, | %15
 [E,,E,][E,,E,] [A,,A,]2 [A,,E,A,][C,C] [B,,F,B,]2 | [E,,,E,,]2 E,,E, E,,B,, [E,,E,]2 | %17
 [E,,,E,,]2 E,,E, E,,2 E,,2 | [E,,,E,,]2 E,,E, E,,B,,E,E,, | E,,,2 E,,E, E,,B,, E,,2 | %20
 [E,,,E,,]2 E,,E, E,,B,, [E,,E,]2 | [E,,,E,,]2 E,,E, E,,2 E,,2 | [E,,,E,,]2 E,,E, E,,B,,E,E,, | %23
 E,,,2 E,,E,, E,B,,E,,E,, | [E,,,E,,]2 E,,E, E,,B,, [E,,E,]2 | [E,,,E,,]2 E,,E, E,,B,, E,,2 | %26
 [E,,,E,,]2 E,,E, E,,B,,E,E,, | E,,,2 E,,E, E,,B,, E,,2 | [F,,,E,,]2 E,,E, E,,B,, [E,,E,]2 | %29
 E,,2 E,,,2 E,,2 E,,2 | [E,,,E,,]2 E,,E, E,,B,,E,E,,- | E,,E,,B,,E,, E,E,,B,,E,, | %32
 [E,,,E,,]4 [E,,,E,,]4 | [E,,,E,,]4 [E,,,E,,]4 | [E,,,E,,]4 [E,,,E,,]2 E,,2 | %35
 [E,,,E,,]4 [E,,,E,,]2 E,,2 | [E,,,E,,]2 E,,2 [E,,,E,,]2 E,,2 | [E,,,E,,]2 E,,2 [E,,,E,,]2 E,,2 | %38
 [E,,,E,,]2 E,,2 [E,,,E,,]3 B,, | [E,,B,,E,]E,, z2 [E,,B,,E,][E,,B,,E,]E,,E,,, | %40
 [E,,,E,,] [E,,,E,,]2 E,, [B,,E,] E,,2 [B,,E,] | E,,3 E,, [B,,E,]E,, E,,2 | %42
 [E,,,E,,] [E,,,E,,]2 E,, [B,,E,] [B,,E,]2 [B,,E,] | [E,,B,,E,]3 E,, [B,,E,]E,, E,,2 | %44
 [E,,,E,,] [E,,,E,,]2 E,, [B,,E,] E,,2 [B,,E,] | E,,3 E,, [B,,E,]E,,E,,E,,, | %46
 [E,,,E,,] [E,,,E,,]3 [B,,E,][E,,B,,E,] z2 | (3E,,_E,,D,, (3^C,,=C,,^C,, D,,[D,,D,]E,[=E,,E,] | %48
 [E,,,E,,] [E,,,E,,]2 E,, [B,,E,] E,,2 [B,,E,] | E,,3 E,, [B,,E,]E,, E,,2 | %50
 [E,,,E,,] [E,,,E,,]2 E,, [B,,E,] [B,,E,]2 [B,,E,] | [E,,B,,E,]3 E,, [B,,E,]E,, E,,2 | %52
 [E,,,E,,] [E,,,E,,]2 E,, [B,,E,] E,,2 [B,,E,] | E,,3 E,, [B,,E,]E,,E,,E,,, | %54
 [E,,,E,,]2 [B,,E,]2 [B,,E,] [E,,B,,E,]2 [B,,E,] | E,,3 [D,,B,,E,] [B,,E,][B,,A,] [B,,B,]2 | %56
 [E,,,E,,]8 |] %57

